assets/images/programs/my-future.svg

<?xml version="1.0" encoding="UTF-8"?>
<svg width="100px" height="106px" viewBox="0 0 100 106" version="1.1" xmlns="http://www.w3.org/2000/svg" xmlns:xlink="http://www.w3.org/1999/xlink">
    <!-- Generator: Sketch 46.2 (44496) - http://www.bohemiancoding.com/sketch -->
    <title>My.Future</title>
    <desc>Created with Sketch.</desc>
    <defs>
        <polygon id="path-1" points="38.9959974 106 0.0123157895 106 0.0123157895 0.206214425 38.9959974 0.206214425 77.9796789 0.206214425 77.9796789 106"></polygon>
    </defs>
    <g id="Mockups" stroke="none" stroke-width="1" fill="none" fill-rule="evenodd">
        <g id="Programs-Post" transform="translate(-974.000000, -481.000000)">
            <g id="My.Future" transform="translate(974.000000, 481.000000)">
                <g id="Group-4">
                    <mask id="mask-2" fill="white">
                        <use xlink:href="#path-1"></use>
                    </mask>
                    <g id="Clip-2"></g>
                    <path d="M47.4352895,73.5121365 C47.4352895,72.3717583 48.3567158,71.4442066 49.4895632,71.4442066 C50.6222053,71.4442066 51.5438368,72.3717583 51.5438368,73.5121365 C51.5438368,74.652308 50.6222053,75.5800663 49.4895632,75.5800663 C48.3567158,75.5800663 47.4352895,74.6521014 47.4352895,73.5121365 Z M54.6242211,73.5121365 C54.6242211,70.6619142 52.3207579,68.3431384 49.4895632,68.3431384 C46.6581632,68.3431384 44.3547,70.6619142 44.3547,73.5121365 C44.3547,76.362152 46.6581632,78.6809279 49.4895632,78.6809279 C52.3207579,78.6809279 54.6242211,76.362152 54.6242211,73.5121365 L54.6242211,73.5121365 Z" id="Fill-1" fill="#252B33" mask="url(#mask-2)"></path>
                    <path d="M68.4815368,100.102226 C69.2475789,100.102226 69.8709632,100.729341 69.8709632,101.500476 C69.8709632,102.27161 69.2477842,102.898932 68.4815368,102.898932 L30.4973842,102.898932 C29.7313421,102.898932 29.1083684,102.27161 29.1083684,101.500476 C29.1083684,100.729341 29.7313421,100.102226 30.4973842,100.102226 C32.0294684,100.102226 64.8896368,100.102226 68.4815368,100.102226 Z M39.7845158,87.3687953 L59.1944053,87.3687953 C60.0532263,92.8919532 59.5679842,94.7695789 61.2228158,97.0013645 L37.7561053,97.0013645 C39.4125789,94.7683392 38.9271316,92.882655 39.7845158,87.3687953 Z M76.4389737,84.2677271 C73.0738895,84.2677271 10.7059105,84.2677271 7.34493158,84.2677271 C4.99364211,84.2677271 3.08038421,82.3421637 3.08038421,79.975037 L3.08038421,7.60017934 C3.08038421,5.23305263 4.99343684,3.30707602 7.34472632,3.30707602 L11.6222053,3.30707602 C12.4730211,3.30707602 13.1625,2.61322027 13.1625,1.75674854 C13.1625,0.900483431 12.4730211,0.206214425 11.6222053,0.206214425 L7.34472632,0.206214425 C3.29488421,0.206214425 0,3.52300195 0,7.60017934 L0,79.9752437 C0,84.0522144 3.29488421,87.3690019 7.34493158,87.3690019 L36.6817579,87.3690019 L35.9426053,93.5004717 C35.6788421,95.6898986 33.7889842,96.2413879 32.9065579,97.0015712 L30.4975895,97.0015712 C28.0329947,97.0015712 26.0279842,99.0197037 26.0279842,101.500682 C26.0279842,103.981661 28.0329947,106 30.4975895,106 L68.4817421,106 C70.9463368,106 72.9515526,103.981661 72.9515526,101.500682 C72.9515526,99.0197037 70.9463368,97.0015712 68.4817421,97.0015712 L66.0729789,97.0015712 C65.2277053,96.2734152 63.3002842,95.6845263 63.0367263,93.5002651 L62.2977789,87.3690019 L76.4393842,87.3690019 C77.2902,87.3690019 77.9796789,86.6749396 77.9796789,85.8184678 C77.9792684,84.9617895 77.2895842,84.2677271 76.4389737,84.2677271 L76.4389737,84.2677271 Z" id="Fill-3" fill="#252B33" mask="url(#mask-2)"></path>
                </g>
                <path d="M92.629144,0 L19.5457745,0 C18.6919318,0 18,0.692972371 18,1.54763829 C18,2.40251046 18.6919318,3.09507035 19.5457745,3.09507035 L92.629144,3.09507035 C94.9885925,3.09507035 96.908657,5.01744995 96.908657,7.38015575 L96.908657,79.6200505 C96.908657,81.98255 94.9887985,83.9047234 92.629144,83.9047234 L84.5931354,83.9047234 C83.7390867,83.9047234 83.0473609,84.5974895 83.0473609,85.4523617 C83.0473609,86.3072339 83.7390867,87 84.5931354,87 L92.629144,87 C96.6933939,87 100,83.689407 100,79.6200505 L100,7.38015575 C99.999794,3.310593 96.6931879,0 92.629144,0" id="Fill-5" fill="#252B33"></path>
                <path d="M23.873528,54.1263493 L26.1262805,54.1263493 L26.1262805,51.8736507 L23.873528,51.8736507 L23.873528,54.1263493 Z M23.0777405,49 C21.9321206,49 21,49.9320983 21,51.0778823 L21,54.9221177 C21,56.0677102 21.9319292,57 23.0777405,57 L26.9222595,57 C28.0676879,57 29,56.0679017 29,54.9221177 L29,51.0778823 C29,49.9322898 28.0678794,49 26.9222595,49 L23.0777405,49 L23.0777405,49 Z" id="Fill-6" fill="#252B33"></path>
                <path d="M42.873528,54.1263493 L45.1262805,54.1263493 L45.1262805,51.8736507 L42.873528,51.8736507 L42.873528,54.1263493 Z M42.0775491,49 C40.9321206,49 40,49.9320983 40,51.0778823 L40,54.9221177 C40,56.0677102 40.9319292,57 42.0775491,57 L45.9222595,57 C47.0678794,57 48,56.0679017 48,54.9221177 L48,51.0778823 C48,49.9322898 47.0678794,49 45.9222595,49 L42.0775491,49 L42.0775491,49 Z" id="Fill-7" fill="#252B33"></path>
                <path d="M62.8737195,54.1263493 L65.1262805,54.1263493 L65.1262805,51.8736507 L62.8737195,51.8736507 L62.8737195,54.1263493 Z M62.0775491,49 C60.9323121,49 60,49.9320983 60,51.0778823 L60,54.9221177 C60,56.0677102 60.9321206,57 62.0775491,57 L65.9222595,57 C67.0676879,57 68,56.0679017 68,54.9221177 L68,51.0778823 C68,49.9322898 67.0678794,49 65.9222595,49 L62.0775491,49 L62.0775491,49 Z" id="Fill-8" fill="#252B33"></path>
                <path d="M33.8734592,54.1263493 L36.1263493,54.1263493 L36.1263493,51.8736507 L33.8734592,51.8736507 L33.8734592,54.1263493 Z M33.0776908,49 C31.9320983,49 31,49.9320983 31,51.0778823 L31,54.9221177 C31,56.0677102 31.9319068,57 33.0776908,57 L36.9221177,57 C38.0677102,57 39,56.0679017 39,54.9221177 L39,51.0778823 C39,49.9322898 38.0679017,49 36.9221177,49 L33.0776908,49 L33.0776908,49 Z" id="Fill-9" fill="#252B33"></path>
                <path d="M53.8737195,54.1263493 L56.1262805,54.1263493 L56.1262805,51.8736507 L53.8737195,51.8736507 L53.8737195,54.1263493 Z M53.0775491,49 C51.9323121,49 51,49.9320983 51,51.0778823 L51,54.9221177 C51,56.0677102 51.9321206,57 53.0775491,57 L56.9222595,57 C58.0676879,57 59,56.0679017 59,54.9221177 L59,51.0778823 C59,49.9322898 58.0678794,49 56.9222595,49 L53.0775491,49 L53.0775491,49 Z" id="Fill-10" fill="#252B33"></path>
                <path d="M71.8737195,54.1263493 L74.1262805,54.1263493 L74.1262805,51.8736507 L71.8737195,51.8736507 L71.8737195,54.1263493 Z M71.0777405,49 C69.9323121,49 69,49.9320983 69,51.0778823 L69,54.9221177 C69,56.0677102 69.9321206,57 71.0777405,57 L74.9222595,57 C76.0676879,57 77,56.0679017 77,54.9221177 L77,51.0778823 C77,49.9322898 76.0678794,49 74.9222595,49 L71.0777405,49 L71.0777405,49 Z" id="Fill-11" fill="#252B33"></path>
                <path d="M9.10657687,11.9561885 L90.8792898,11.9561885 L90.8792898,9.14900549 L9.10657687,9.14900549 L9.10657687,11.9561885 Z M93.9858667,60.4133544 L93.9858667,54.1153434 C93.9858667,53.2455741 93.2907321,52.5407358 92.4326818,52.5407358 C91.5746314,52.5407358 90.8792898,53.2455741 90.8792898,54.1153434 L90.8792898,59.8509945 C86.4677312,59.8509945 12.0937098,59.8509945 9.10657687,59.8509945 C9.10657687,58.2925442 9.10657687,16.665323 9.10657687,15.105194 L90.8792898,15.105194 L90.8792898,46.7673142 C90.8792898,47.6370835 91.5746314,48.341712 92.4326818,48.341712 C93.2907321,48.341712 93.9858667,47.6370835 93.9858667,46.7673142 C93.9858667,5.15855854 94.0794345,8.28553127 93.7850684,7.58111257 C93.3971344,6.65300893 92.4891951,6 91.4336586,6 C87.7880316,6 12.2054944,6 8.55220805,6 C7.14496413,6 6,7.16060168 6,8.58706528 C6,10.8828785 6,57.8118104 6,60.4131446 C6,61.8396082 7.14496413,63 8.55220805,63 C11.7608401,63 85.611337,63 91.4336586,63 C92.8411096,63.0002098 93.9858667,61.839818 93.9858667,60.4133544 L93.9858667,60.4133544 Z" id="Fill-12" fill="#252B33"></path>
            </g>
        </g>
    </g>
</svg>

<svg xmlns="http://www.w3.org/2000/svg" xmlns:xlink="http://www.w3.org/1999/xlink" width="100" height="106">
  <defs>
    <path id="a" d="M38.996 106H.012V.206H77.98V106z"/>
  </defs>
  <g fill="none" fill-rule="evenodd">
    <path fill="#FF8200" d="M8 14h86v47H8z"/>
    <mask id="b" fill="#fff">
      <use xlink:href="#a"/>
    </mask>
    <path fill="#252B33" d="M47.435 73.512c0-1.14.922-2.068 2.055-2.068 1.132 0 2.054.928 2.054 2.068 0 1.14-.922 2.068-2.054 2.068a2.064 2.064 0 0 1-2.055-2.068zm7.19 0c0-2.85-2.304-5.169-5.135-5.169-2.832 0-5.135 2.319-5.135 5.17 0 2.85 2.303 5.168 5.135 5.168 2.83 0 5.134-2.319 5.134-5.169z" mask="url(#b)"/>
    <path fill="#252B33" d="M68.482 100.102c.766 0 1.389.627 1.389 1.398 0 .772-.623 1.399-1.39 1.399H30.498a1.395 1.395 0 0 1-1.389-1.399c0-.77.623-1.398 1.39-1.398h37.984zM39.785 87.37h19.41c.858 5.523.373 7.4 2.028 9.632H37.756c1.657-2.233 1.171-4.118 2.029-9.632zm36.654-3.101H7.345c-2.351 0-4.265-1.926-4.265-4.293V7.6c0-2.367 1.913-4.293 4.265-4.293h4.277c.851 0 1.54-.694 1.54-1.55 0-.857-.689-1.55-1.54-1.55H7.345C3.295.206 0 3.522 0 7.6v72.375c0 4.077 3.295 7.394 7.345 7.394h29.337l-.74 6.131c-.263 2.19-2.153 2.741-3.035 3.502h-2.41c-2.464 0-4.469 2.018-4.469 4.499 0 2.48 2.005 4.499 4.47 4.499h37.984c2.464 0 4.47-2.018 4.47-4.5 0-2.48-2.006-4.498-4.47-4.498h-2.409c-.845-.729-2.773-1.317-3.036-3.502l-.74-6.131H76.44c.851 0 1.54-.694 1.54-1.55 0-.857-.69-1.551-1.54-1.551z" mask="url(#b)"/>
    <path fill="#252B33" d="M92.63 0H19.545a1.547 1.547 0 0 0 0 3.095h73.083c2.36 0 4.28 1.922 4.28 4.285v72.24a4.287 4.287 0 0 1-4.28 4.285h-8.036a1.546 1.546 0 1 0 0 3.095h8.036c4.064 0 7.371-3.31 7.371-7.38V7.38C100 3.31 96.693 0 92.63 0M23.874 54.126h2.252v-2.252h-2.252v2.252zM23.078 49A2.08 2.08 0 0 0 21 51.078v3.844A2.08 2.08 0 0 0 23.078 57h3.844A2.08 2.08 0 0 0 29 54.922v-3.844A2.08 2.08 0 0 0 26.922 49h-3.844zm19.796 5.126h2.252v-2.252h-2.252v2.252zM42.078 49A2.08 2.08 0 0 0 40 51.078v3.844A2.08 2.08 0 0 0 42.078 57h3.844A2.08 2.08 0 0 0 48 54.922v-3.844A2.08 2.08 0 0 0 45.922 49h-3.844z"/>
    <path fill="#252B33" d="M62.874 54.126h2.252v-2.252h-2.252v2.252zM62.078 49A2.08 2.08 0 0 0 60 51.078v3.844A2.08 2.08 0 0 0 62.078 57h3.844A2.08 2.08 0 0 0 68 54.922v-3.844A2.08 2.08 0 0 0 65.922 49h-3.844zm-28.205 5.126h2.253v-2.252h-2.253v2.252zM33.078 49A2.08 2.08 0 0 0 31 51.078v3.844A2.08 2.08 0 0 0 33.078 57h3.844A2.08 2.08 0 0 0 39 54.922v-3.844A2.08 2.08 0 0 0 36.922 49h-3.844zm20.796 5.126h2.252v-2.252h-2.252v2.252zM53.078 49A2.08 2.08 0 0 0 51 51.078v3.844A2.08 2.08 0 0 0 53.078 57h3.844A2.08 2.08 0 0 0 59 54.922v-3.844A2.08 2.08 0 0 0 56.922 49h-3.844zm18.796 5.126h2.252v-2.252h-2.252v2.252zM71.078 49A2.08 2.08 0 0 0 69 51.078v3.844A2.08 2.08 0 0 0 71.078 57h3.844A2.08 2.08 0 0 0 77 54.922v-3.844A2.08 2.08 0 0 0 74.922 49h-3.844z"/>
    <path fill="#252B33" d="M9.107 11.956h81.772V9.15H9.107v2.807zm84.879 48.457v-6.298c0-.87-.695-1.574-1.553-1.574s-1.554.705-1.554 1.574v5.736H9.107V15.105h81.772v31.662c0 .87.696 1.575 1.554 1.575.858 0 1.553-.705 1.553-1.575 0-41.608.093-38.481-.2-39.186A2.556 2.556 0 0 0 91.433 6H8.552C7.145 6 6 7.16 6 8.587v51.826C6 61.84 7.145 63 8.552 63h82.882c1.407 0 2.552-1.16 2.552-2.587z"/>
  </g>
</svg>
